X: 1
T:The Sailors are a' at the Bar
M:9/8
L:1/8
K:F
BGBAFAG2B|AcAFAFAcA|BGBAFAB2c|defgecBAG:||:F2fegef3|cdegcBAGF|G2gegeg3|d
efgecBAG:||
% Output from ABC2Win  Version 2.1 i on 3/6/2000
